X:24
T:T015B- Muire 'N Inghean Ghiberlan
S:McFarlane MS II, NLS, c 1738-43
L:1/4
M:C|
J:0A
K:Am
A/G/|EAAA/B/|"tr"A2GA|Bc/B/"tr"AG|"tr"BAA3/2B/|G/A/B/c/dG|\
"tr"A3/2G/E2|D/E/GG/A/B/A/|GED2|D/E/GGD/E/|G2g2|\
"tr"e3/2 d/ e/g/a/g/|"tr"e3/2 d/"tr"B2|de/f/gd|\
e3/2 g/ e/d/B/d/|G2ed/c/|"tr"BAA::\
B|c3/2 d/ c/d/e/d/|c/e/e/f/ g3/2 d/|"tr"BAed/c/|\
"tr"BAA3/2 B/|G/A/B/c/ d/B/g/B/|{B/}A2GE|D2D/E/G|\
G/A/G/E/D2|D/E/G/A/GD|G2g3/2 d/|\
e2ag|e/g/e/d/ "tr"B2|de/f/gd|eBgB|cB/A/ed/c/|"tr"BAA:|]

